assets/svg/download-black.svg

<svg height="12" viewBox="0 0 18 12" width="18" xmlns="http://www.w3.org/2000/svg"><path d="m326.512575 581.537537c-.52515-2.587462-2.77515-4.537537-5.512575-4.537537-2.174925 0-4.049925 1.237425-4.987425 3.037537-2.25.225038-4.012575 2.137388-4.012575 4.462463 0 2.47485 2.024963 4.5 4.5 4.5h9.75c2.0625 0 3.75-1.6875 3.75-3.75 0-1.987425-1.53735-3.600037-3.487425-3.712463zm-6.712575 1.912463v-2.85h2.4v2.85h2.55l-3.75 3.75-3.75-3.75z" fill="#111" transform="translate(-312 -577)"/></svg>

<?xml version="1.0" encoding="UTF-8"?>
<svg width="18px" height="12px" viewBox="0 0 18 12" version="1.1" xmlns="http://www.w3.org/2000/svg" xmlns:xlink="http://www.w3.org/1999/xlink">
    <!-- Generator: Sketch 48.2 (47327) - http://www.bohemiancoding.com/sketch -->
    <title>Shape</title>
    <desc>Created with Sketch.</desc>
    <defs></defs>
    <g id="My-Account-Dashboard-Desktop" stroke="none" stroke-width="1" fill="none" fill-rule="evenodd" transform="translate(-312.000000, -577.000000)">
        <path d="M326.512575,581.537537 C325.987425,578.950075 323.737425,577 321,577 C318.825075,577 316.950075,578.237425 316.012575,580.037537 C313.762575,580.262575 312,582.174925 312,584.5 C312,586.97485 314.024963,589 316.5,589 L326.25,589 C328.3125,589 330,587.3125 330,585.25 C330,583.262575 328.46265,581.649963 326.512575,581.537537 Z M319.8,583.45 L319.8,580.6 L322.2,580.6 L322.2,583.45 L324.75,583.45 L321,587.2 L317.25,583.45 L319.8,583.45 Z" id="Shape" fill="#111111" fill-rule="nonzero"></path>
    </g>
</svg>
